X:645
T: WER SICH DES MAIEN FREUET
N: E2026
O: Europa, Mitteleuropa, Deutschland, Wuerttemberg
R: geistlich, Wallfahrts - Lied
M: 4/4
L: 1/8
K: G
D2 | G2D2B2A2 | BcB2A2
GB | AGF2GFF2 | D4z2
D2 | G2D2B2A2 | BcB2A2
GB | AGF2GFF2 | D4z2
B2 | d4GABd | c6
Ac | BAGFB2A2 | G6

